X: 23821
T: Little Katie Taylor
R: reel
M: 4/4
K: Dmajor
|:"D"D2 FD "G"GEFE|"D"(3DDD FA "D"d2 ef|"C"geaf "D"f-ged|"A"cA (3AAA EFGE|
"D"D2 FD "G"GEFE|"D"(3DDD FA dfef|"G"geaf "D"edcd|1 "A"ed (3ddc "D"dBAF:|2 "A"edce "D"d3 g||
|:"D"fdfa "G"(3ggg ag|"D"fdfa "G"(3ggg ag|"D"fd"C"=cA "G"BG (3GGG|"A"ABcA "D"dcAg|
"D"fdfa "G"(3ggg ag|"D"fdfa "G"(3ggg ag|"D"fd"C"=cA "G"BG (3GGG|1 "A"ABcA "D"[d3D3A3] g:|2 "A"ABcA "D"[d4D4A4]||

